X: 1
T:Kevin's Polka  "CYMRU"
M:C|
L:1/8
Q:80
C:
S:Polka
K:HP
|: {g}G3/2A/2{g}Bd|
{gf}gf{gef}ed|
{g}ef{g}AB|  !
{g}c2{gcd}BA| |
{g}G3/2A/2{g}Bd|
{gf}gf{gef}ed|  !
{g}eaef|
{gf}g2{a}g2:| :|
| {ag}aeae|  !
{ag}ae{A}e3/2f/2|
{gf}gdgd|
{gf}gd{g}d3/2e/2| |  !
{ag}aeae|
{ag}ae{A}e3/2f/2|
{ag}gedB|  !
{g}A2{GAG}A2:|
